assets/dude/That–Hank.svg

<svg width="365" height="99" viewBox="0 0 365 99" fill="none" xmlns="http://www.w3.org/2000/svg">
<path d="M62.1414 99C62.8414 99 63.4014 98.44 63.4014 97.74V64.98C63.4014 64.28 62.8414 63.72 62.1414 63.72H48.2814C47.5814 63.72 47.0214 63.16 47.0214 62.46V37.26C47.0214 36.56 47.5814 36 48.2814 36H64.6614C69.5614 36 73.4814 39.92 73.4814 44.82V46.08C73.4814 46.78 74.0414 47.34 74.7414 47.34H82.3014C83.0014 47.34 83.5614 46.78 83.5614 46.08V1.97997C83.5614 1.27997 83.0014 0.719971 82.3014 0.719971H1.66137C0.961367 0.719971 0.401367 1.27997 0.401367 1.97997V46.08C0.401367 46.78 0.961367 47.34 1.66137 47.34H9.22137C9.92137 47.34 10.4814 46.78 10.4814 46.08V44.82C10.4814 39.92 14.4014 36 19.3014 36H35.6814C36.3814 36 36.9414 36.56 36.9414 37.26V62.46C36.9414 63.16 36.3814 63.72 35.6814 63.72H21.8214C21.1214 63.72 20.5614 64.28 20.5614 64.98V97.74C20.5614 98.44 21.1214 99 21.8214 99H62.1414Z" fill="#FF1C31"/>
<path d="M185.286 99C185.986 99 186.546 98.44 186.546 97.74V64.98C186.546 64.28 185.986 63.72 185.286 63.72H171.426C170.726 63.72 170.166 63.16 170.166 62.46V37.26C170.166 36.56 170.726 36 171.426 36H185.286C185.986 36 186.546 35.44 186.546 34.74V1.97997C186.546 1.27997 185.986 0.719971 185.286 0.719971H144.966C144.266 0.719971 143.706 1.27997 143.706 1.97997V34.74C143.706 35.44 144.266 36 144.966 36H158.826C159.526 36 160.086 36.56 160.086 37.26V44.82C160.086 45.52 159.526 46.08 158.826 46.08H118.506C117.806 46.08 117.246 45.52 117.246 44.82V37.26C117.246 36.56 117.806 36 118.506 36H132.366C133.066 36 133.626 35.44 133.626 34.74V1.97997C133.626 1.27997 133.066 0.719971 132.366 0.719971H92.0456C91.3456 0.719971 90.7856 1.27997 90.7856 1.97997V34.74C90.7856 35.44 91.3456 36 92.0456 36H105.906C106.606 36 107.166 36.56 107.166 37.26V62.46C107.166 63.16 106.606 63.72 105.906 63.72H92.0456C91.3456 63.72 90.7856 64.28 90.7856 64.98V97.74C90.7856 98.44 91.3456 99 92.0456 99H132.366C133.066 99 133.626 98.44 133.626 97.74V64.98C133.626 64.28 133.066 63.72 132.366 63.72H118.506C117.806 63.72 117.246 63.16 117.246 62.46V54.9C117.246 54.2 117.806 53.64 118.506 53.64H158.826C159.526 53.64 160.086 54.2 160.086 54.9V62.46C160.086 63.16 159.526 63.72 158.826 63.72H144.966C144.266 63.72 143.706 64.28 143.706 64.98V97.74C143.706 98.44 144.266 99 144.966 99H185.286Z" fill="#FF1C31"/>
<path d="M276.598 63.72C275.898 63.72 274.778 63.16 274.078 62.04L258.398 37.4C258.398 37.4 258.118 36.98 258.118 36.56C258.118 36.28 258.398 36 258.958 36H261.898C262.598 36 263.158 35.44 263.158 34.74V1.97997C263.158 1.27997 262.598 0.719971 261.898 0.719971H221.578C220.878 0.719971 220.318 1.27997 220.318 1.97997V34.74C220.318 35.44 220.878 36 221.578 36H226.198C226.618 36 227.038 36.28 227.038 36.56C227.038 36.98 226.758 37.4 226.758 37.4L211.078 62.04C210.378 63.16 209.958 63.72 209.258 63.72H195.118C194.418 63.72 193.858 64.42 193.858 64.98V97.74C193.858 98.44 194.418 99 195.118 99H235.438C236.138 99 236.698 98.44 236.698 97.74V64.98C236.698 64.42 236.138 63.72 235.438 63.72H222.138C221.578 63.72 221.158 63.72 221.158 63.44C221.158 63.02 221.438 62.6 221.438 62.6L224.798 57.14C225.498 56.02 225.918 55.46 226.618 55.46H254.058C254.758 55.46 255.178 56.02 255.878 57.14L259.098 62.32C259.098 62.32 259.378 62.74 259.378 63.16C259.378 63.44 259.098 63.72 258.538 63.72H248.038C247.338 63.72 246.778 64.42 246.778 64.98V97.74C246.778 98.44 247.338 99 248.038 99H288.358C289.058 99 289.618 98.44 289.618 97.74V64.98C289.618 64.42 289.058 63.72 288.358 63.72H276.598ZM236.978 37.68C237.678 36.56 238.098 36 238.798 36H241.738C242.438 36 242.858 36.56 243.558 37.68L249.158 46.5C249.158 46.5 249.438 46.92 249.438 47.34C249.438 47.62 249.158 47.9 248.598 47.9H232.078C231.658 47.9 231.238 47.62 231.238 47.34C231.238 46.92 231.518 46.5 231.518 46.5L236.978 37.68Z" fill="#FF1C31"/>
<path d="M343.235 99C343.935 99 344.495 98.44 344.495 97.74V64.98C344.495 64.28 343.935 63.72 343.235 63.72H329.375C328.675 63.72 328.115 63.16 328.115 62.46V37.26C328.115 36.56 328.675 36 329.375 36H345.755C350.655 36 354.575 39.92 354.575 44.82V46.08C354.575 46.78 355.135 47.34 355.835 47.34H363.395C364.095 47.34 364.655 46.78 364.655 46.08V1.97997C364.655 1.27997 364.095 0.719971 363.395 0.719971H282.755C282.055 0.719971 281.495 1.27997 281.495 1.97997V46.08C281.495 46.78 282.055 47.34 282.755 47.34H290.315C291.015 47.34 291.575 46.78 291.575 46.08V44.82C291.575 39.92 295.495 36 300.395 36H316.775C317.475 36 318.035 36.56 318.035 37.26V62.46C318.035 63.16 317.475 63.72 316.775 63.72H302.915C302.215 63.72 301.655 64.28 301.655 64.98V97.74C301.655 98.44 302.215 99 302.915 99H343.235Z" fill="#FF1C31"/>
</svg>

<svg xmlns="http://www.w3.org/2000/svg" fill="none" viewBox="0 0 365 99"><path fill="#FF1C31" d="M62.141 99c.7 0 1.26-.56 1.26-1.26V64.98c0-.7-.56-1.26-1.26-1.26h-13.86c-.7 0-1.26-.56-1.26-1.26v-25.2c0-.7.56-1.26 1.26-1.26h16.38c4.9 0 8.82 3.92 8.82 8.82v1.26c0 .7.56 1.26 1.26 1.26h7.56c.7 0 1.26-.56 1.26-1.26V1.98c0-.7-.56-1.26-1.26-1.26H1.661c-.7 0-1.26.56-1.26 1.26v44.1c0 .7.56 1.26 1.26 1.26h7.56c.7 0 1.26-.56 1.26-1.26v-1.26c0-4.9 3.92-8.82 8.82-8.82h16.38c.7 0 1.26.56 1.26 1.26v25.2c0 .7-.56 1.26-1.26 1.26h-13.86c-.7 0-1.26.56-1.26 1.26v32.76c0 .7.56 1.26 1.26 1.26h40.32zM185.286 99c.7 0 1.26-.56 1.26-1.26V64.98c0-.7-.56-1.26-1.26-1.26h-13.86c-.7 0-1.26-.56-1.26-1.26v-25.2c0-.7.56-1.26 1.26-1.26h13.86c.7 0 1.26-.56 1.26-1.26V1.98c0-.7-.56-1.26-1.26-1.26h-40.32c-.7 0-1.26.56-1.26 1.26v32.76c0 .7.56 1.26 1.26 1.26h13.86c.7 0 1.26.56 1.26 1.26v7.56c0 .7-.56 1.26-1.26 1.26h-40.32c-.7 0-1.26-.56-1.26-1.26v-7.56c0-.7.56-1.26 1.26-1.26h13.86c.7 0 1.26-.56 1.26-1.26V1.98c0-.7-.56-1.26-1.26-1.26h-40.32c-.7 0-1.26.56-1.26 1.26v32.76c0 .7.56 1.26 1.26 1.26h13.86c.7 0 1.26.56 1.26 1.26v25.2c0 .7-.56 1.26-1.26 1.26h-13.86c-.7 0-1.26.56-1.26 1.26v32.76c0 .7.56 1.26 1.26 1.26h40.32c.7 0 1.26-.56 1.26-1.26V64.98c0-.7-.56-1.26-1.26-1.26h-13.86c-.7 0-1.26-.56-1.26-1.26V54.9c0-.7.56-1.26 1.26-1.26h40.32c.7 0 1.26.56 1.26 1.26v7.56c0 .7-.56 1.26-1.26 1.26h-13.86c-.7 0-1.26.56-1.26 1.26v32.76c0 .7.56 1.26 1.26 1.26h40.32zM276.598 63.72c-.7 0-1.82-.56-2.52-1.68l-15.68-24.64s-.28-.42-.28-.84c0-.28.28-.56.84-.56h2.94c.7 0 1.26-.56 1.26-1.26V1.98c0-.7-.56-1.26-1.26-1.26h-40.32c-.7 0-1.26.56-1.26 1.26v32.76c0 .7.56 1.26 1.26 1.26h4.62c.42 0 .84.28.84.56 0 .42-.28.84-.28.84l-15.68 24.64c-.7 1.12-1.12 1.68-1.82 1.68h-14.14c-.7 0-1.26.7-1.26 1.26v32.76c0 .7.56 1.26 1.26 1.26h40.32c.7 0 1.26-.56 1.26-1.26V64.98c0-.56-.56-1.26-1.26-1.26h-13.3c-.56 0-.98 0-.98-.28 0-.42.28-.84.28-.84l3.36-5.46c.7-1.12 1.12-1.68 1.82-1.68h27.44c.7 0 1.12.56 1.82 1.68l3.22 5.18s.28.42.28.84c0 .28-.28.56-.84.56h-10.5c-.7 0-1.26.7-1.26 1.26v32.76c0 .7.56 1.26 1.26 1.26h40.32c.7 0 1.26-.56 1.26-1.26V64.98c0-.56-.56-1.26-1.26-1.26h-11.76zm-39.62-26.04c.7-1.12 1.12-1.68 1.82-1.68h2.94c.7 0 1.12.56 1.82 1.68l5.6 8.82s.28.42.28.84c0 .28-.28.56-.84.56h-16.52c-.42 0-.84-.28-.84-.56 0-.42.28-.84.28-.84l5.46-8.82z"/><path fill="#FF1C31" d="M343.235 99c.7 0 1.26-.56 1.26-1.26V64.98c0-.7-.56-1.26-1.26-1.26h-13.86c-.7 0-1.26-.56-1.26-1.26v-25.2c0-.7.56-1.26 1.26-1.26h16.38c4.9 0 8.82 3.92 8.82 8.82v1.26c0 .7.56 1.26 1.26 1.26h7.56c.7 0 1.26-.56 1.26-1.26V1.98c0-.7-.56-1.26-1.26-1.26h-80.64c-.7 0-1.26.56-1.26 1.26v44.1c0 .7.56 1.26 1.26 1.26h7.56c.7 0 1.26-.56 1.26-1.26v-1.26c0-4.9 3.92-8.82 8.82-8.82h16.38c.7 0 1.26.56 1.26 1.26v25.2c0 .7-.56 1.26-1.26 1.26h-13.86c-.7 0-1.26.56-1.26 1.26v32.76c0 .7.56 1.26 1.26 1.26h40.32z"/></svg>
